icon_installer/data/icons/scalable/actions/show-funnel-outline-symbolic.svg

<?xml version="1.0" encoding="UTF-8"?>
<svg height="16px" viewBox="0 0 16 16" width="16px" xmlns="http://www.w3.org/2000/svg">
    <g fill="#222222">
        <path d="m 1.042969 0 c -0.8125 0 -1.285157 0.917969 -0.8125 1.582031 l 4.769531 6.738281 v 6.636719 c 0 0.742188 0.78125 1.226563 1.449219 0.894531 l 4 -2 c 0.335937 -0.171874 0.550781 -0.515624 0.550781 -0.894531 v -4.636719 l 4.8125 -6.738281 c 0.476562 -0.664062 0 -1.582031 -0.8125 -1.582031 z m 1.902343 2 h 10.109376 l -3.867188 5.417969 c -0.121094 0.167969 -0.1875 0.375 -0.1875 0.582031 v 4.339844 l -2 1 v -5.339844 c 0 -0.207031 -0.066406 -0.414062 -0.1875 -0.582031 z m 0 0"/>
        <path d="m 3.859375 5 l 2.140625 3 v 7 l 4 -2 v -5 l 2.144531 -3 z m 0 0" fill-opacity="0.34902"/>
    </g>
</svg>

<svg xmlns="http://www.w3.org/2000/svg" width="16" height="16"><g fill="#222"><path d="M1.043 0A1 1 0 0 0 .23 1.582L5 8.32v6.637c0 .742.781 1.227 1.45.895l4-2c.335-.172.55-.516.55-.895V8.32l4.813-6.738A.999.999 0 0 0 15 0zm1.902 2h10.11L9.187 7.418A1.003 1.003 0 0 0 9 8v4.34l-2 1V8a.998.998 0 0 0-.188-.582zm0 0"/><path fill-opacity=".349" d="M3.86 5 6 8v7l4-2V8l2.145-3zm0 0"/></g></svg>
